img/svg/contacts/mic.svg

<svg width="29" height="28" viewBox="0 0 29 28" fill="none" xmlns="http://www.w3.org/2000/svg">
<path d="M15.5242 22.2088L15.0742 22.254V22.7063V26.25V26.75H15.5742H20.8242C20.9237 26.75 21.0191 26.7895 21.0894 26.8598C21.1597 26.9302 21.1992 27.0255 21.1992 27.125C21.1992 27.2245 21.1597 27.3198 21.0894 27.3902C21.0191 27.4605 20.9237 27.5 20.8242 27.5H8.57422C8.47476 27.5 8.37938 27.4605 8.30905 27.3902C8.23873 27.3198 8.19922 27.2245 8.19922 27.125C8.19922 27.0255 8.23873 26.9302 8.30905 26.8598C8.37938 26.7895 8.47476 26.75 8.57422 26.75H13.8242H14.3242V26.25V22.7063V22.254L13.8742 22.2088C11.8392 22.0042 9.95279 21.0511 8.58082 19.5343C7.20885 18.0176 6.44919 16.0452 6.44922 14V12.25C6.44922 12.1505 6.48873 12.0552 6.55905 11.9848C6.62938 11.9145 6.72476 11.875 6.82422 11.875C6.92368 11.875 7.01906 11.9145 7.08938 11.9848C7.15971 12.0552 7.19922 12.1505 7.19922 12.25V14C7.19922 15.9891 7.9894 17.8968 9.39592 19.3033C10.8024 20.7098 12.7101 21.5 14.6992 21.5C16.6883 21.5 18.596 20.7098 20.0025 19.3033C21.409 17.8968 22.1992 15.9891 22.1992 14V12.25C22.1992 12.1505 22.2387 12.0552 22.3091 11.9848C22.3794 11.9145 22.4748 11.875 22.5742 11.875C22.6737 11.875 22.7691 11.9145 22.8394 11.9848L23.1929 11.6313L22.8394 11.9848C22.9097 12.0552 22.9492 12.1505 22.9492 12.25V14C22.9492 16.0452 22.1896 18.0176 20.8176 19.5343C19.4457 21.0511 17.5592 22.0042 15.5242 22.2088ZM18.058 1.89124L18.4115 1.53769L18.058 1.89124C18.9488 2.78204 19.4492 3.99022 19.4492 5.25V14C19.4492 15.2598 18.9488 16.468 18.058 17.3588C17.1672 18.2496 15.959 18.75 14.6992 18.75C13.4394 18.75 12.2313 18.2496 11.3405 17.3588C10.4497 16.468 9.94922 15.2598 9.94922 14V5.25C9.94922 3.99022 10.4497 2.78204 11.3405 1.89124C12.2313 1.00045 13.4394 0.5 14.6992 0.5C15.959 0.5 17.1672 1.00045 18.058 1.89124ZM17.5276 16.8284C18.2778 16.0783 18.6992 15.0609 18.6992 14V5.25C18.6992 4.18913 18.2778 3.17172 17.5276 2.42157C16.7775 1.67143 15.7601 1.25 14.6992 1.25C13.6384 1.25 12.6209 1.67143 11.8708 2.42157C11.1206 3.17172 10.6992 4.18913 10.6992 5.25V14C10.6992 15.0609 11.1206 16.0783 11.8708 16.8284C12.6209 17.5786 13.6384 18 14.6992 18C15.7601 18 16.7775 17.5786 17.5276 16.8284Z" fill="#030303" stroke="#FBFBFB"/>
</svg>

<svg width="29" height="28" fill="none" xmlns="http://www.w3.org/2000/svg"><path d="M15.524 22.209l-.45.045v4.496h5.75a.375.375 0 110 .75H8.574a.375.375 0 110-.75h5.75v-4.496l-.45-.045A8.25 8.25 0 016.45 14v-1.75a.375.375 0 01.75 0V14a7.5 7.5 0 0015 0v-1.75a.375.375 0 01.64-.265l.354-.354-.354.354c.07.07.11.165.11.265V14a8.25 8.25 0 01-7.425 8.209zM18.058 1.89l.354-.353-.354.353a4.75 4.75 0 011.391 3.359V14a4.75 4.75 0 11-9.5 0V5.25a4.75 4.75 0 018.109-3.359zm-.53 14.937A4 4 0 0018.699 14V5.25a4 4 0 10-8 0V14a4 4 0 006.829 2.828z" fill="#030303" stroke="#FBFBFB"/></svg>
